src/icon/brand/card-visa/icon_card-visa_l_black.svg

<?xml version="1.0" encoding="UTF-8"?>
<svg width="30px" height="30px" viewBox="0 0 30 30" version="1.1" xmlns="http://www.w3.org/2000/svg" xmlns:xlink="http://www.w3.org/1999/xlink">
    <!-- Generator: Sketch 49 (51002) - http://www.bohemiancoding.com/sketch -->
    <title>icon_visa_l_black</title>
    <desc>Created with Sketch.</desc>
    <defs></defs>
    <g id="Page-1" stroke="none" stroke-width="1" fill="none" fill-rule="evenodd">
        <g id="card_visa_l_black">
            <polygon id="Shape" points="0 0 30 0 30 30 0 30"></polygon>
            <path d="M10.1168808,19.844375 L11.5832036,10.7871875 L13.9300662,10.7871875 L12.4628107,19.844375 L10.1168808,19.844375 Z M23.3389705,18.4990625 L22.8492635,19.844375 L20.4044595,19.844375 L23.9032996,11.4621875 C23.9032996,11.4621875 24.1150396,10.7871875 24.9862517,10.7871875 L26.8723233,10.7871875 L28.75,19.844375 L26.5962219,19.844375 L26.3210531,18.4990625 L23.3389705,18.4990625 Z M14.2574703,17.4546875 C15.2182289,18.23 18.1294205,18.4503125 18.1294205,17.22125 C18.1294205,15.9921875 14.8842953,15.963125 14.8842953,13.623125 C14.8842953,11.136875 17.6490413,10.625 18.8131448,10.625 C19.8895675,10.625 20.9230825,11.0196875 20.9230825,11.0196875 L20.5882162,12.965 C19.5836172,12.4090625 17.2992505,12.2778125 17.2992505,13.3015625 C17.2992505,14.3253125 20.5732918,14.5446875 20.5732918,16.8996875 C20.5732918,19.1665625 18.1574038,20 16.5567614,20 C14.956119,20 13.9086124,19.488125 13.9086124,19.488125 L14.2574703,17.4546875 Z M4.85322984,11.6028125 L5.64235773,15.67625 L5.90726591,17.0178125 L8.14406106,10.788125 L10.6690838,10.788125 L6.93611706,19.8453125 L4.4922458,19.8453125 L2.45599734,11.98625 C2.41029135,11.9590625 2.36365259,11.9271875 2.3179466,11.9009375 C2.24425735,11.8578125 2.1705681,11.8165625 2.0987444,11.7771875 C1.98214749,11.7134375 1.86834891,11.654375 1.75734865,11.5990625 C1.69391993,11.5671875 1.62769288,11.5334375 1.56612971,11.504375 C1.4308773,11.4415625 1.30122153,11.384375 1.17809519,11.33375 C1.13052365,11.3140625 1.08388489,11.294375 1.03911167,11.2765625 C0.914119785,11.2278125 0.795657323,11.1828125 0.68932094,11.14625 C0.638951074,11.129375 0.596043411,11.1153125 0.550337421,11.1003125 C0.480379275,11.076875 0.412286678,11.054375 0.35445461,11.0375 C0.316210823,11.0253125 0.279832587,11.015 0.247185452,11.005625 C0.197748362,10.9915625 0.151109597,10.9784375 0.116596911,10.97 C0.0979414055,10.9653125 0.0736892479,10.95875 0.0596976186,10.955 C0.0298488093,10.9475 0,10.9409375 0,10.9409375 L0.0429076634,10.7871875 L3.74042891,10.7871875 C4.75808676,10.7871875 4.85322984,11.6028125 4.85322984,11.6028125 Z M25.2474288,13.2509375 L24.0142999,16.64 L25.9404808,16.64 L25.2474288,13.2509375 Z" id="Combined-Shape" fill="#0F2338"></path>
        </g>
    </g>
</svg>

<svg width="30" height="30" viewBox="0 0 30 30" xmlns="http://www.w3.org/2000/svg"><g fill="none" fill-rule="evenodd"><path d="M0 0h30v30H0z"/><path d="M10.117 19.844l1.466-9.057h2.347l-1.467 9.057h-2.346zM23.339 18.5l-.49 1.345h-2.445l3.5-8.382s.211-.675 1.082-.675h1.886l1.878 9.057h-2.154l-.275-1.345H23.34zm-9.082-1.044c.961.775 3.872.995 3.872-.234s-3.245-1.258-3.245-3.598c0-2.486 2.765-2.998 3.93-2.998 1.076 0 2.11.395 2.11.395l-.336 1.945c-1.004-.556-3.289-.687-3.289.337 0 1.023 3.274 1.243 3.274 3.598 0 2.267-2.416 3.1-4.016 3.1s-2.648-.512-2.648-.512l.348-2.033zm-9.404-5.852l.79 4.073.264 1.342 2.237-6.23h2.525l-3.733 9.057H4.492l-2.036-7.859c-.046-.027-.092-.059-.138-.085a8.993 8.993 0 0 0-.56-.302c-.064-.032-.13-.066-.192-.095a9.538 9.538 0 0 0-.388-.17 9.446 9.446 0 0 0-.489-.188L.55 11.1a5.526 5.526 0 0 0-.196-.063l-.107-.031a4.044 4.044 0 0 0-.13-.036l-.057-.015-.06-.014.043-.154H3.74c1.018 0 1.113.816 1.113.816zm20.394 1.648l-1.233 3.389h1.926l-.693-3.39z" fill="#0F2338"/></g></svg>
